X:1
T:Soul and Inspiration
T:Soul and Inspiration
C:Barry Mann and Cynthia Weil
Z:All Rights Reserved
L:1/8
M:4/4
K:C
V:1 treble nm="Guitar" snm="Guit."
%%MIDI program 24
V:1
"Dmin" z A- A2- A z GF |"G " G B2 G"Emin" E- E3 |"Fmaj7" z A Ad-"Amin" d2 cA | %3
w: Girl, * * I can't|let you do this, *|let you walk * a\- a\-|
"G " B/A/G-"Emin" G6 |"Dmin" z A- A2- A z GF |"G " G B2 G"Emin" E- E3 | %6
w: w\- a\- y. *|Girl, * * how can|I live through this, *|
"Fmaj7" (3z2 A2 e2 (3c2 A2 c2 |"C " (3e2 d2 c2"G7" (3d2 c2 d2 |"C " e e2 e/d/ c2 de | %9
w: when you're all I wake|up for each day. Ba- by,|you're my so- ul and my hea-|
"F " f2 ff"G " ed- d2 |"C " z e ee e/d/ c2 c |"F " d c2 A"G " d4 |"C " z e2 e e/d/c de | %13
w: rt's in- spi- ra- tion, *|you're all I've g\- o\- t to|ge- t me by.|You're my so- u\- l and my|
"F " f2 ff"G " ed- dB |"Amin" c"G " B2"C " A2 G2 E |"Bb " D/C/D- D6 |"G7" z8 | %17
w: heart's in- spi- ra- tion; * with-|out you ba- by, what|good am I? *||
"Dmin" z A- A2- A z GF |"G " G B2 G"Emin" E- E3 |"Fmaj7" z A Ad- d2 cA |"Emin" B/A/G-"G " G6 | %21
w: I * * ne- ver|had much go- in' *|but at least * I have|y\- o\- u. *|
"Dmin" z A- A2- A z GF |"G " G B2 G"Emin" E- E3 |"Fmaj7" (3z2 A2 e2 (3c2 A2 c2 | %24
w: How * * can you|walk out know- in' *|I ain't got no- thing|
"C " (3e2 d2 c2"G7" (3d2 c2 d2 |"C " e e2 e/d/ c2 de |"F " f2 ff"G " ed- d2 | %27
w: left if you do? Ba- by|you're my so- u\- l and my|heart's in- spi- ra- tion, *|
"C " z e ee e/d/ c2 c |"F " d c2 A"G " d4 |"C " z e2 e e/d/c de |"F " f2 ff"G " ed- dB | %31
w: you're all I've g\- o\- t to|ge- t me by.|You're my so- u\- l and my|heart's in- spi- ra- tion, * with-|
"Amin" c"G " B2"C " A2 G2 E |"Bb " D/C/D- D6 |"G7" z2 GG G"Emin" E2 E |"C " E/D/C- C6 | %35
w: out you ba- by what|good am I? *|Oh, what go- od a\-|a\- m I? *|
"F ""G7" z8 |"C " z8 |"F ""G7" z8 |"C " gg- g/e/c-"F " c4 |"G " z g2 g"Fmaj7" g e2 f | %40
w: |||Ba- b\- * y\- y, *|I can't make it with-|
"C " gg- g/e/c-"F " c4 |"C " z g2 g"Fmaj7" (3g2 e2 f2 |"C " ag- g/f/e/d/"F " c z z2 | %43
w: out y\- * o\- u *|and I'm tel- lin' you|ho- ney * ye- a\- a\- h|
"G " z g f"Fmaj7" g2 e fg |"C " ef z g"Fmaj7" ef z g |"C " (3e2 f2 g2"Fmaj7" ef g2 | %46
w: you're my rea- son for laugh-|in' and cry- in' for li-|vin' and dy- in' ba- by-|
"C " e e2 e/d/ c2 de |"F " f2 ff"G " ed- d2 |"C " z e ee e/d/ c2 c |"F " d c2 A"G " d4 | %50
w: you're my so- u\- l and my|heart's in- spi- ra- tion, *|you're all I've g\- o\- t to|ge- t me by.|
"C " z e2 e e/d/c de |"F " f2 ff"G " ed- dB |"Amin" c"G " B2"C " A2 G2 E |"Bb " D/C/D- D6 | %54
w: You're my so- u\- l and my|heart's in- spi- ra- tion, * with-|out you ba- by what|good am I? *|
"G7" z2 GG G E2 E |"C " E/D/C- C6 |"G7" z2 z G G E2 E |"C " E/D/C-"F " C6- |"C " C8 |] %59
w: Oh, what go- od a\-|a\- m I? *|Oh, what go- od|a\- m I? *||

